icons/file-word-2-fill.svg

<svg xmlns="http://www.w3.org/2000/svg" width="24" height="24" fill="none"><g clip-path="url(#a)"><g><path fill="#121212" d="M17 2.99997H21C21.2652 2.99997 21.5196 3.10533 21.7071 3.29286C21.8946 3.4804 22 3.73475 22 3.99997V20C22 20.2652 21.8946 20.5195 21.7071 20.7071C21.5196 20.8946 21.2652 21 21 21H17V2.99997ZM2.859 2.87697L15.429 1.08197C15.4999 1.07179 15.5722 1.07699 15.641 1.0972C15.7098 1.11741 15.7734 1.15216 15.8275 1.1991C15.8817 1.24605 15.9251 1.30408 15.9549 1.36928C15.9846 1.43447 16 1.5053 16 1.57697V22.423C16 22.4945 15.9846 22.5653 15.9549 22.6304C15.9252 22.6955 15.8819 22.7535 15.8278 22.8004C15.7738 22.8473 15.7103 22.8821 15.6417 22.9024C15.5731 22.9227 15.5009 22.928 15.43 22.918L2.858 21.123C2.61962 21.089 2.40149 20.9702 2.24369 20.7883C2.08589 20.6065 1.999 20.3738 1.999 20.133V3.86697C1.999 3.62618 2.08589 3.39348 2.24369 3.21161C2.40149 3.02975 2.61962 2.91092 2.858 2.87697H2.859ZM11 7.99997V12.989L9 11L7.01 13L7 7.99997H5V16H7L9 14L11 16H13V7.99997H11Z"/></g></g><defs><clipPath id="a"><rect width="24" height="24" fill="white"/></clipPath></defs></svg>

<svg width="24" height="24" fill="none" xmlns="http://www.w3.org/2000/svg"><g clip-path="url(#a)"><path d="M17 3h4a1 1 0 0 1 1 1v16a1 1 0 0 1-1 1h-4V3ZM2.859 2.877l12.57-1.795a.5.5 0 0 1 .571.495v20.846a.5.5 0 0 1-.57.495L2.858 21.123a1 1 0 0 1-.859-.99V3.867a1 1 0 0 1 .859-.99h.001ZM11 8v4.989L9 11l-1.99 2L7 8H5v8h2l2-2 2 2h2V8h-2Z" /></g><defs><clipPath id="a"><path fill="#fff" d="M0 0h24v24H0z"/></clipPath></defs></svg>
